img/ui/icons/Close eye.svg

<svg width="24" height="24" viewBox="0 0 24 24" fill="none" xmlns="http://www.w3.org/2000/svg">
<path d="M3 10C3.85907 11.041 4.87049 11.9462 6 12.685M6 12.685C7.2165 13.4787 8.57462 14.0305 10 14.31C11.3213 14.5639 12.6787 14.5639 14 14.31C15.4254 14.0305 16.7835 13.4787 18 12.685M6 12.685L4.5 14.5M21 10C20.1409 11.041 19.1295 11.9462 18 12.685M18 12.685L19.5 14.5M10 14.309L9.5 16.5M14 14.309L14.5 16.5" stroke="currentColor" stroke-width="1.5" stroke-linecap="round" stroke-linejoin="round"/>
</svg>

<svg width="24" height="24" fill="none" xmlns="http://www.w3.org/2000/svg"><path d="M3 10a13.4 13.4 0 0 0 3 2.685m0 0a11.3 11.3 0 0 0 4 1.625c1.321.254 2.679.254 4 0a11.3 11.3 0 0 0 4-1.625m-12 0L4.5 14.5M21 10a13.4 13.4 0 0 1-3 2.685m0 0 1.5 1.815m-9.5-.191L9.5 16.5m4.5-2.191.5 2.191" stroke="currentColor" stroke-width="1.5" stroke-linecap="round" stroke-linejoin="round"/></svg>
